X: 1
T: Brandy Culotte
M: 4/4
L: 1/8
R: reel
K: Dmaj
M:6/4
FA~A2 GAFA dAGE | FA~A2 GFDB, A,CDE | FA~A2 GAFA dAGE | FA,~A,2 B,G,A,B, CDED |
FA~A2 GAFA dAGE | FA~A2 GFDB, A,CDE | FA~A2 GAFA dAGF | EA,~A,2 B,A,CA, DE F/E/D |
|: E3E EDFD EDCD | E3E EDFG FEDF | E3E EDFD EDCD | E2FG FECE D2z2 :|
FA~A2 GAFA dAGE | FA~A2 GFDB, A,CDE | FA~A2 GAFA dAGE | FA,~A,2 B,G,A,B, CDED |
FA~A2 GAFA dAGE | FA~A2 GFDB, A,CDE | FA~A2 GAFA dAGF | EA,~A,2 B,A,CA, DE F/E/D |
|: G2BG FGAB c/B/A cA | d2fd Bcde fagf | BgBg fg/f/ ec Acec | d2fd cdec BcdA |
BG (3GGG BdcB cdef | ec (3ccc Acec acgc | fd (3ddd Bcde fafg |1 bfde fdec d2z2 :|2 bfde fdec d2cd |
|: eA~A2 eAfA edcd | eA~A2 eAfg fedf | eA~A2 eAfA edcd |1 eAfg fecA d2cd :|2 eAfg fecA d4 ||
